src/assets/icons/icon-nav-bookmark.svg

<svg width="17" height="20" viewBox="0 0 17 20" fill="none" xmlns="http://www.w3.org/2000/svg">
<path d="M15.3866 0C15.5893 0 15.7832 0.0396563 15.9683 0.118969C16.2591 0.233532 16.4904 0.414188 16.6623 0.660939C16.8341 0.907689 16.92 1.18088 16.92 1.4805V18.5195C16.92 18.8191 16.8341 19.0923 16.6623 19.3391C16.4904 19.5858 16.2591 19.7665 15.9683 19.881C15.8008 19.9515 15.607 19.9868 15.3866 19.9868C14.9636 19.9868 14.5979 19.8458 14.2895 19.5638L8.46001 13.959L2.63054 19.5638C2.31328 19.8546 1.94757 20 1.53338 20C1.33069 20 1.13681 19.9603 0.951751 19.881C0.660939 19.7665 0.42961 19.5858 0.257766 19.3391C0.085922 19.0923 0 18.8191 0 18.5195V1.4805C0 1.18088 0.085922 0.907689 0.257766 0.660939C0.42961 0.414188 0.660939 0.233532 0.951751 0.118969C1.13681 0.0396563 1.33069 0 1.53338 0H15.3866Z" />
</svg>

<svg width="17" height="20" xmlns="http://www.w3.org/2000/svg"><path d="M15.387 0c.202 0 .396.04.581.119.291.115.522.295.694.542.172.247.258.52.258.82v17.038c0 .3-.086.573-.258.82a1.49 1.49 0 0 1-.694.542 1.49 1.49 0 0 1-.581.106c-.423 0-.79-.141-1.098-.423L8.46 13.959l-5.83 5.605c-.317.29-.682.436-1.097.436-.202 0-.396-.04-.581-.119a1.49 1.49 0 0 1-.694-.542A1.402 1.402 0 0 1 0 18.52V1.481c0-.3.086-.573.258-.82A1.49 1.49 0 0 1 .952.119C1.137.039 1.33 0 1.533 0h13.854Z" /></svg>
